assets/icons/share-24.svg

<svg width="24" height="24" viewBox="0 0 24 24" fill="none" xmlns="http://www.w3.org/2000/svg">
<path d="M4 11C4 10.4477 3.55229 10 3 10C2.44772 10 2 10.4477 2 11L2 18C2 20.2091 3.79086 22 6 22H18C20.2091 22 22 20.2091 22 18V11C22 10.4477 21.5523 10 21 10C20.4477 10 20 10.4477 20 11V18C20 19.1046 19.1046 20 18 20H6C4.89543 20 4 19.1046 4 18L4 11Z" fill="#F2F2F2"/>
<path d="M12.7071 2.29289C12.3166 1.90237 11.6834 1.90237 11.2929 2.29289L6.29289 7.29289C5.90237 7.68342 5.90237 8.31658 6.29289 8.70711C6.68342 9.09763 7.31658 9.09763 7.70711 8.70711L11 5.41421L11 15C11 15.5523 11.4477 16 12 16C12.5523 16 13 15.5523 13 15L13 5.41421L16.2929 8.70711C16.6834 9.09763 17.3166 9.09763 17.7071 8.70711C18.0976 8.31658 18.0976 7.68342 17.7071 7.29289L12.7071 2.29289Z" fill="#F2F2F2"/>
</svg>

<svg xmlns="http://www.w3.org/2000/svg" width="24" height="24" viewBox="0 0 24 24"><path d="M4 11a1 1 0 10-2 0v7a4 4 0 004 4h12a4 4 0 004-4v-7a1 1 0 10-2 0v7a2 2 0 01-2 2H6a2 2 0 01-2-2v-7z"/><path d="M12.707 2.293a1 1 0 00-1.414 0l-5 5a1 1 0 001.414 1.414L11 5.414V15a1 1 0 102 0V5.414l3.293 3.293a1 1 0 101.414-1.414l-5-5z"/></svg>
